Icons/Colored/LockClosed.svg

<svg xmlns="http://www.w3.org/2000/svg" xml:space="preserve" fill-rule="evenodd" stroke-linejoin="round" stroke-miterlimit="2" clip-rule="evenodd" viewBox="0 0 64 64">
  <g id="brown">
    <path fill="#aa7850" d="M9.701 29.023h45.332c2.985 0 2.63 1.993 2.637 4.657V53c0 2.664.348 5-2.637 5H9.701c-2.98 0-3.082-2.164-3.082-4.828v-19.32c0-2.664.102-4.829 3.082-4.829Z"/>
  </g>
  <g id="grey">
    <path fill="#acabab" d="M15.047 29.023v-7.246c0-8.429 7.668-15.293 17.101-15.293 9.43 0 17.106 6.864 17.106 15.293v7.246h-9l-.008-7.246c-.25-4.199-3.894-7.461-8.098-7.242-4.203-.215-7.843 3.043-8.097 7.242v7.246h-9.004Z"/>
  </g>
</svg>

<?xml version="1.0" encoding="UTF-8" standalone="no"?>
<!DOCTYPE svg PUBLIC "-//W3C//DTD SVG 1.1//EN" "http://www.w3.org/Graphics/SVG/1.1/DTD/svg11.dtd">
<svg width="100%" height="100%" viewBox="0 0 64 64" version="1.1" xmlns="http://www.w3.org/2000/svg" xmlns:xlink="http://www.w3.org/1999/xlink" xml:space="preserve" xmlns:serif="http://www.serif.com/" style="fill-rule:evenodd;clip-rule:evenodd;stroke-linejoin:round;stroke-miterlimit:2;">
    <g id="surface1">
        <path d="M55.363,29.023L49.254,29.023L49.254,21.777C49.254,13.348 41.578,6.484 32.148,6.484C22.715,6.484 15.047,13.348 15.047,21.777L15.047,29.023L10.031,29.023C7.051,29.023 6.949,31.188 6.949,33.852L6.949,53.172C6.949,55.836 7.051,58 10.031,58L55.363,58C58.348,58 57.355,55.836 57.355,53.172L57.355,33.852C57.348,31.188 58.348,29.023 55.363,29.023ZM40.254,29.023L24.051,29.023L24.051,21.777C24.305,17.578 27.945,14.32 32.148,14.535C36.352,14.316 39.996,17.578 40.246,21.777L40.254,29.023Z" style="fill:#aa7850;fill-rule:nonzero;"/>
        <path d="M15.047,29.023L15.047,21.777C15.047,13.348 22.715,6.484 32.148,6.484C41.578,6.484 49.254,13.348 49.254,21.777L49.254,29.023L40.254,29.023L40.246,21.777C39.996,17.578 36.352,14.316 32.148,14.535C27.945,14.32 24.305,17.578 24.051,21.777L24.051,29.023L15.047,29.023Z" style="fill:#acabab;"/>
    </g>
</svg>
